!!!COM: Haydn, Franz Joseph
!!!OPR: String Quartet in C Major
!!!ONM: Opus 64, No. 1
!!!OTL: Allegro moderato
!!!OMV: 1
!!!SCT: H III:65
!!!SCA: Thematisch-bibliographisches Werkevererzeichnis (A. van Hoboken)
!!!YOR: Dover Edition; reprint of Eulenburg Edition
!!!EED: Walter Hewlett
!!!ENC: Walter Hewlett
!!!CDT: 1732/3/31/-1809/5/31/
!!!OCY: Österreich
!!!YEC: Copyright (c) 1994, 2000 Center for Computer Assisted Research in the Humanities
!!!YEM: Rights to all derivative editions reserved.
!!!YEM: Refer to licensing agreement for further details.
!!!YEN: United States of America
**kern	**kern	**kern	**kern
*I:Violino I	*I:Violino II	*I:Viola	*I:Violoncello
*>[A,A,B]	*>[A,A,B]	*>[A,A,B]	*>[A,A,B]
*>A	*>A	*>A	*>A
*clefG2	*clefG2	*clefC3	*clefF4
*k[]	*k[]	*k[]	*k[]
*C:	*C:	*C:	*C:
*M4/4	*M4/4	*M4/4	*M4/4
! Allegro moderato	! Allegro moderato	! Allegro moderato	! Allegro moderato
=0-	=0-	=0-	=0-
4G	4r	4r	4r
2ryy	2ryy	2ryy	2ryy
4ryy	4ryy	4ryy	4ryy
=1	=1	=1	=1
2c	1r	2E	4CC
.	.	.	4C
(8.e	.	4C	2r
16ck)	.	.	.
(8.f	.	4D	.
16dk)	.	.	.
=2	=2	=2	=2
(4..gz	1r	2E	4CC
.	.	.	4C
16e)	.	.	.
8c	.	4r	4r
8r	.	.	.
(16e	.	(16c	4G
16d	.	16B	.
16c	.	16A	.
16d)	.	16B)	.
=3	=3	=3	=3
! cresc.	!	! cresc.	!
8e	1r	8c	4C
8r	.	8r	.
8f	.	8d	4r
8r	.	8r	.
8g	.	8e	2r
8r	.	8r	.
8a	.	8f	.
8r	.	8r	.
=4	=4	=4	=4
(4b	1r	(4f 4d	(4G
8cc)	.	8e 8c)	8A)
8r	.	8r	8r
4r	.	2r	2r
(4g#	.	.	.
=5	=5	=5	=5
4..a)	1r	4r	(1FF
.	.	(4C#	.
(16e	.	.	.
8.f)	.	8.D)	.
(16c#k	.	(16Ek	.
8.d)	.	8.F)	.
16fk	.	16Fk	.
=6	=6	=6	=6
(2cn	1r	(2E	2.GG)
4B)	.	4D)	.
(16B	.	4Cn	4AA
16A	.	.	.
16G	.	.	.
16A)	.	.	.
=7	=7	=7	=7
4G	1r	4D	2BB
(4f	.	(4d	.
4e	.	4c	4r
4d)	.	4B)	4G
=8	=8	=8	=8
(4d#	2r	(4B	4C
8e)	.	8c)	8r
8r	.	16r	16r
.	.	(16c	(16AA
4r	4r	8.B)	8.GG)
.	.	(16Ak	(16FFk
4g	4G	8.G)	8.EE)
.	.	(16Fk	(16DDk
=9	=9	=9	=9
! (16GP/LL	!	!	!
! 16eP/JJ	!	!	!
2cc	2c	2E)	4CC)
.	.	.	4C
(8.ee	(8.e	(4c	2r
16cck)	16ck)	.	.
(8.ff	(8.f	4d)	.
16ddk)	16dk)	.	.
=10	=10	=10	=10
(4..gg	(4..g	2e	2r
16ee)	16e)	.	.
8cc	8c	4r	4r
8r	8r	.	.
(16ee	(16cc	(16e	4G
16dd	16b	16d	.
16cc	16a	16c	.
16dd)	16b)	16d)	.
=11	=11	=11	=11
8ee	8cc	8e	8c
8r	8r	8r	8r
8ff	8dd	8f	8d
8r	8r	8r	8r
8gg	8ee	8g	8e
8r	8r	8r	8r
8aa	8ff	8a	8f
8r	8r	8r	8r
=12	=12	=12	=12
(4bb	(4ff	(4dd	(4g
8ccc)	8ee)	8cc)	8a)
8r	8r	8r	8r
4r	2r	4r	2r
(4gg#	.	(4g#	.
=13	=13	=13	=13
4..aa)	4r	4..a)	(1F
.	(4c#	.	.
(16ee	.	(16e	.
8.ff)	8.d)	8.f)	.
(16cc#k	(16ek	(16c#k	.
8.dd)	8.f)	8.d)	.
16ffk	16fk	16fk	.
=14	=14	=14	=14
(2ccn	(2e	(2cn	2.G)
8b)	4d)	4B)	.
8r	.	.	.
(16b	4cn	(16B	4A
16a	.	16A	.
16g	.	16G	.
16a)	.	16A)	.
=15	=15	=15	=15
4g	4d	4G	4B
(4ff	(4dd	(4f	4r
4ee)	4cc	4e)	4r
(16cc	4f)	(16e	4G
16b	.	16d	.
16a	.	16c	.
16b)	.	16d)	.
=16	=16	=16	=16
4cc	(8e	(8c	8CC
.	8G	8G	8r
2r	8e	8c	8EE
.	8G)	8G)	8r
.	(8e	(8c	8GG
.	8G	8G	8r
(16ccK	8e	8c	8C
8.ccc)	.	.	.
.	8G)	8G)	8r
=17	=17	=17	=17
(16bbK	(8f	(8d	4CC
8.gg)	.	.	.
.	8G	8G	.
(16ffK	8f	8d	4r
8.dd)	.	.	.
.	8G)	8G)	.
(16bK	(8f	(8d	2r
8.g)	.	.	.
.	8G	8G	.
(16fK	8f	8d	.
8.d)	.	.	.
.	8G)	8G)	.
=18	=18	=18	=18
4c	(8e	(8c	8CC
.	8G	8G	8r
4e	8e	8c	8EE
.	8G)	8G)	8r
4r	(8e	(8c	8GG
.	8G	8G	8r
(12cc	8e	8c	8C
12ee	8G)	8G)	8r
12ccc)	.	.	.
=19	=19	=19	=19
12bb	(8f	(8d	4CC
12aa	8G	8G	.
12gg	.	.	.
12ff	8f	8d	4r
12ee	8G)	8G)	.
12dd	.	.	.
12cc	(8f	(8d	2r
12b	8G	8G	.
12a	.	.	.
12g	8f	8d	.
12a	8G)	8G)	.
12f	.	.	.
=20	=20	=20	=20
(4e	4e	(4c	4C
4g	4r	4G	4r
4cc	4r	4c	4r
4ee)	(4g	4e)	(4C
=21	=21	=21	=21
(4f	4a)	(4F	4F)
4a	4r	4A	4r
4dd	4r	4d	4r
4ffz)	4ddz	4fz)	(4Dz
=22	=22	=22	=22
(2ee	(2cc	(2e	4G)
.	.	.	4GG
8dd)	8b)	4d)	4GG
16r	16r	.	.
16gg	16g	.	.
! (32aaP/LLL	! (32aP/LLL	!	!
! 32ggP/	! 32gP/	!	!
! 32ff#P/JJJ	! 32f#P/JJJ	!	!
4gg	4g	4r	4r
=23	=23	=23	=23
4ccc	4cc	(4E	(4EE
4ccc	4cc	4G	4GG
4ccc	4cc	4c	4C
4r	4r	4e)	4E)
=24	=24	=24	=24
4aa	4a	(4F	(4FF
4aa	4a	4A	4AA
4aa	4a	4d	4D
(16gg	(16b	4fz)	4Fz)
16ff	16a	.	.
16ee	16g	.	.
16dd)	16f)	.	.
=25	=25	=25	=25
(2cc	(2e	4g	4G
.	.	4G	4GG
4b)	4d)	4G	4GG
4dd	4r	4r	4r
=26	=26	=26	=26
! (16dP/LL	!	!	!
! 16bP/JJ	!	!	!
2gg	2d 2B	1r	4G
.	.	.	4GG
(8.bb	4g	.	2r
16ggk)	.	.	.
(8.ccc	4a	.	.
16aak)	.	.	.
=27	=27	=27	=27
(8ddd	4b	2r	1r
8bb)	.	.	.
8gg	4r	.	.
8dd	.	.	.
(8b	2r	4r	.
8g)	.	.	.
8d	.	4G	.
8B	.	.	.
=28	=28	=28	=28
(4c	1d	(4A	1r
4B	.	4G	.
4A)	.	4F#	.
(16c	.	4G)	.
16B	.	.	.
16A	.	.	.
16B)	.	.	.
=29	=29	=29	=29
4c	4d	4A	4D
8r	4r	4F#	4DD
8d	.	.	.
8f#	2r	2r	2r
8a	.	.	.
8dd	.	.	.
8ff#	.	.	.
=30	=30	=30	=30
4aa	4r	4f#	4D
8r	8r	4F#	4DD
8f#	8d	.	.
8a	8f#	2r	2r
8cc	8a	.	.
8ff#	8cc	.	.
8aa	8ff#	.	.
=31	=31	=31	=31
4.ccc	4aa	4f#	4D
.	4r	4F#	4DD
8aa	.	.	.
8ff#	2r	2r	2r
8dd	.	.	.
8cc	.	.	.
8a	.	.	.
=32	=32	=32	=32
(8f#	4r	4r	4DD
8d	.	.	.
8c#	(2dd	(4F#	(4D
8d)	.	.	.
(8cn	.	4G	4E
8d	.	.	.
8A	4cc)	4A)	4F#)
8d)	.	.	.
=33	=33	=33	=33
12G	4b	4B	4G
12g	.	.	.
12b	.	.	.
12dd	4r	4r	4r
12gg	.	.	.
12bb	.	.	.
4ddd	4r	2r	2r
(16ccc	(16a	.	.
16bb	16g	.	.
16aa	16f#	.	.
16bb)	16g)	.	.
=34	=34	=34	=34
8ccc	8a	12D	1r
8r	8r	12F#	.
.	.	12A	.
8aa	8f#	12d	.
8r	8r	12f#	.
.	.	12a	.
8ff#	8d	4cc	.
8r	8r	.	.
8dd	8f#	4cc	.
8r	8r	.	.
=35	=35	=35	=35
12G	4g	4b-	1r
12g	.	.	.
12b-	.	.	.
12dd	4r	4r	.
12gg	.	.	.
12bb-	.	.	.
4ddd	4r	2r	.
(16ccc	(16a	.	.
16bb-	16g	.	.
16aa	16f#	.	.
16bb-)	16g)	.	.
=36	=36	=36	=36
8ccc	8a	2.F#	12DD
8r	8r	.	12FF#
.	.	.	12AA
8aa	8f#	.	12D
8r	8r	.	12F#
.	.	.	12A
8ff#	8d	.	4c
8r	8r	.	.
8dd	8f#	4d	4c
8r	8r	.	.
=37	=37	=37	=37
1bb-	12G	4G	4B-
.	12B-	.	.
.	12d	.	.
.	12g	4r	4r
.	12b-	.	.
.	12dd	.	.
.	4gg	2r	2r
.	4ffn	.	.
=38	=38	=38	=38
(2.ggg	(2.ee-	[1b-	12EE-
.	.	.	12GG
.	.	.	12BB-
.	.	.	12E-
.	.	.	12G
.	.	.	12B-
.	.	.	4e-
4fffn)	4dd)	.	4fn
=39	=39	=39	=39
(8eee-	4ee-	4b-]	4g
8bb-	.	.	.
8gg	4r	4r	4r
8ff)	.	.	.
4ee-	2r	2r	2r
4dd	.	.	.
=40	=40	=40	=40
(12cc#	4a	4e	4G
12a	.	.	.
12ee)	.	.	.
(12ee	4r	4r	4r
12a	.	.	.
12cc#)	.	.	.
(12cc#	4a	4e	4G
12a	.	.	.
12ee)	.	.	.
(12ee	4r	4r	4r
12a	.	.	.
12cc#)	.	.	.
=41	=41	=41	=41
(12dd	4a	4d	4F#
12d	.	.	.
12dd)	.	.	.
(12ff#	4r	4r	4r
12d	.	.	.
12ff#)	.	.	.
(12dd	4a	4d	4F#
12d	.	.	.
12dd)	.	.	.
(12ff#	4r	4r	4r
12d	.	.	.
12ff#)	.	.	.
=42	=42	=42	=42
(12cc#	4a	4e	4G
12a	.	.	.
12ee)	.	.	.
(12ee	4r	4r	4r
12a	.	.	.
12cc#)	.	.	.
(12cc#	4a	4e	4G
12a	.	.	.
12ee)	.	.	.
(12ee	4r	4r	4r
12a	.	.	.
12cc#)	.	.	.
=43	=43	=43	=43
(12dd	4a	4d	4F#
12d	.	.	.
12dd)	.	.	.
(12ff#	4r	4r	4r
12d	.	.	.
12ff#)	.	.	.
(12dd	4a	4d	4F#
12d	.	.	.
12dd)	.	.	.
(12ff#	4r	4r	4r
12d	.	.	.
12ff#)	.	.	.
=44	=44	=44	=44
(12cc#	4a	4e	4G
12a	.	.	.
12ee)	.	.	.
(12ee	4r	4r	4r
12a	.	.	.
12cc#)	.	.	.
(12cc#	4a	4e	4G
12a	.	.	.
12ee)	.	.	.
(12ee	4r	4r	4r
12a	.	.	.
12cc#)	.	.	.
=45	=45	=45	=45
(8dd	4a	4d	4F#
8d)	.	.	.
(8d	2az	4r	(2F#z
8d)	.	.	.
(8d	.	2r	.
8d)	.	.	.
(8d	(16cc	.	4G#)
.	16b	.	.
8d)	16a	.	.
.	16b)	.	.
=46	=46	=46	=46
! sempre	!	!	!
(8d	(4cc	1r	(4A
8d)	.	.	.
(8d	4a)	.	4F#)
8d)	.	.	.
(8d	(4b	.	(4Gn
8d)	.	.	.
(8d	4g)	.	4E)
8d)	.	.	.
=47	=47	=47	=47
(8d	4f#	1r	4D
8d)	.	.	.
(8d	2az	.	(2F#z
8d)	.	.	.
(8d	.	.	.
8d)	.	.	.
(8d	(16cc	.	4G#)
.	16b	.	.
8d)	16a	.	.
.	16b)	.	.
=48	=48	=48	=48
(8d	(4cc	1r	(4A
8d)	.	.	.
(8d	4a)	.	4F#)
8d)	.	.	.
(8d	4b	.	4Gn
8d)	.	.	.
(8d	(16a	.	4E
.	16g	.	.
8d)	16f#	.	.
.	16g)	.	.
=49	=49	=49	=49
4d	4f#	1r	4D
(2d	4r	.	(4D
.	2r	.	4C
4d#z)	.	.	4BB)
=50	=50	=50	=50
2e	(2G	1r	4C
.	.	.	4CC
(8.a	4e)	.	4C
16ek)	.	.	.
(8.cc	(8.e	.	4C
16ak)	16ck)	.	.
=51	=51	=51	=51
(8g	2.A	4d	2.C
8f#)	.	.	.
(8ee	.	(2F#	.
8dd)	.	.	.
(4.dd	.	.	.
.	4d	4A)	(4c
16ee	.	.	.
16ff#)	.	.	.
=52	=52	=52	=52
8gg	4G	4B	4B)
8r	.	.	.
! cresc.	!	! cresc.	!
8aa	4r	(8.f#	4r
8r	.	.	.
.	.	16dk)	.
8bb	2r	(8.g	2r
8r	.	.	.
.	.	16dk)	.
8ccc	.	(8.a	.
8r	.	.	.
.	.	16dk)	.
=53	=53	=53	=53
8ddd	4r	4b	1r
8r	.	.	.
!	! cresc.	!	!
8eee	8cc	4r	.
8r	8r	.	.
8fff#	8a	2r	.
8r	8r	.	.
8ggg	8b	.	.
8r	8r	.	.
=54	=54	=54	=54
4d	4g 4B	4B	4D
4r	4r	4r	4r
4r	4r	4r	4r
(12ee	4f# 4An	4c	4D
12dd	.	.	.
12f#)	.	.	.
=55	=55	=55	=55
4g	4g 4B	4B	4G
4a	4r	4r	4r
4b	4r	4r	4r
4cc#	4g	4A#	4E
=56	=56	=56	=56
(2cc#	(2.g	(2A#	2.D
4dd)	.	4B)	.
(12ee	4f# 4A)	4c	4DD
12dd	.	.	.
12f#)	.	.	.
=57	=57	=57	=57
4g	4g 4B	4B	4GG
4a	4r	4r	4r
4b	4r	4r	4r
4cc#	4g	4A#	4E
=58	=58	=58	=58
(2cc#	(2.g	(2A#	2.D
4dd)	.	4B)	.
(12ee	4f# 4A)	4c	4DD
12dd	.	.	.
12f#)	.	.	.
=59	=59	=59	=59
(12g	4g 4B	4B	4GG
12b	.	.	.
12dd)	.	.	.
(12ee	4f# 4An	4c	4DD
12dd	.	.	.
12f#)	.	.	.
(12g	4g 4B	4B	4GG
12b	.	.	.
12dd)	.	.	.
(12ee	4f# 4A	4c	4DD
12dd	.	.	.
12f#)	.	.	.
=60	=60	=60	=60
4g	4g 4B	4B	4GG
4gg	4r	4r	4r
4r	4r	4r	4r
4r	4r	(12e	4r
.	.	12d	.
.	.	12F#)	.
=61	=61	=61	=61
! mezzo voce	! mezzo voce	!	!
4r	4r	4G	1r
4b	4g	4A	.
4b	4g	4B	.
4b	4g	4c	.
=62	=62	=62	=62
(2.a	(4g	(2c#	1r
.	4e	.	.
.	4f#)	4d)	.
4b)	4r	(12fn	.
.	.	12e	.
.	.	12G#)	.
=63	=63	=63	=63
4cc	4r	4A	1r
4cc	4a	4B	.
4cc	4a	4cn	.
4cc	4a	4d	.
=64	=64	=64	=64
2.b	(4a	(2d#	2r
.	4f#	.	.
.	4gn)	4e)	4r
!	!	!	! mezzo voce
(4aa	(4f#	4r	(12c
.	.	.	12B
.	.	.	12D#)
=65	=65	=65	=65
8gg)	8e)	4r	4E
8r	8r	.	.
(4ffn	(4dd	(12a	4r
.	.	12gn	.
.	.	12B)	.
8ee)	8cc)	4c	4r
8r	8r	.	.
(4dd	(4b	4r	(12Fn
.	.	.	12E
.	.	.	12GG#)
=66	=66	=66	=66
8cc)	8a)	4r	4AA
8r	8r	.	.
4r	4cc	4a	4BB
2r	4cc	4a	4C
.	4cc	4a	4Dn
=67	=67	=67	=67
1r	(2.b	(4a	(2D#
.	.	4f#	.
.	.	4g)	4E)
.	4b-)	4g	(12dn
.	.	.	12c
.	.	.	12E)
=68	=68	=68	=68
1r	4a	(2g	4F
.	4a	.	4G
.	4a	2fn)	4A
.	4a	.	4B-
=69	=69	=69	=69
4r	1g	(2f	(2Bn
(12aa	.	.	.
12gg	.	.	.
12dd)	.	.	.
4r	.	2e)	2c)
(12aa	.	.	.
12gg	.	.	.
12ee)	.	.	.
=70	=70	=70	=70
4r	1a	(2g	(2c#
(12bb-	.	.	.
12aa	.	.	.
12ee)	.	.	.
4r	.	2f)	2d)
(12bb-	.	.	.
12aa	.	.	.
12ff)	.	.	.
=71	=71	=71	=71
4r	1b-z	1fz	1Dz
(12dddz	.	.	.
12bb-)	.	.	.
12ff	.	.	.
12dd	.	.	.
12ff	.	.	.
12dd	.	.	.
12b-	.	.	.
12dd	.	.	.
12b-	.	.	.
=72	=72	=72	=72
4a	1az 1e-	1fz	1Cz
(12eee-z	.	.	.
12ccc)	.	.	.
12aa	.	.	.
12ff	.	.	.
12ee-	.	.	.
12aa	.	.	.
12ccc	.	.	.
12aa	.	.	.
12ee-	.	.	.
=73	=73	=73	=73
4dd	1b-z 1d	1fz	1BB-z
(12dddz	.	.	.
12bb-)	.	.	.
12ff	.	.	.
12dd	.	.	.
12ff	.	.	.
12dd	.	.	.
12b-	.	.	.
12dd	.	.	.
12b-	.	.	.
=74	=74	=74	=74
12a	1fz	1dz	1AAz
12dd	.	.	.
12ff	.	.	.
12aa	.	.	.
12ddd	.	.	.
12aa	.	.	.
12ff	.	.	.
12aa	.	.	.
12ff	.	.	.
12dd	.	.	.
12ff	.	.	.
12dd	.	.	.
=75	=75	=75	=75
12g#	1fz	1dz	1GG#z
12dd	.	.	.
12ee	.	.	.
12ff	.	.	.
12ee	.	.	.
12dd	.	.	.
12ddd	.	.	.
12d	.	.	.
12e	.	.	.
12f	.	.	.
12e	.	.	.
12d	.	.	.
=76	=76	=76	=76
12c#	2.ez	2.c#z	2.AAz
12e	.	.	.
12g#	.	.	.
12a	.	.	.
12e	.	.	.
12c#	.	.	.
4A	.	.	.
4a	4c#	4r	(16B-
.	.	.	16A
.	.	.	16G
.	.	.	16A)
=77	=77	=77	=77
4cc#	4e	4r	4G
4dd	4f	4A	4F
4ee	4g	4G	4E
4ff	4a	4F	4D
=78	=78	=78	=78
(4gg	(4b-	(4E	(4C#
8ff)	8a)	8F)	4D)
8r	8r	8r	.
4r	4r	2r	4r
4dd	4f#	.	(16e-
.	.	.	16d
.	.	.	16c
.	.	.	16d)
=79	=79	=79	=79
4ff#	4a	4r	4c
4gg	4b-	4d	4B-
4aa	4cc	4cn	4A
4bb-	4dd	4B-	4G
=80	=80	=80	=80
(4ccc	(4ee-	(4A	(4F#
8bb-)	8dd)	8B-)	8G)
8r	8r	8r	8r
4r	4r	4r	2r
4gg	4dd	4b-	.
=81	=81	=81	=81
(4ff#	(4ee-	(4cc	1r
4gg)	4dd)	4b-)	.
4r	4r	4r	.
4aa	4dd	4f#	.
=82	=82	=82	=82
(4ccc	2dd	(4a	2r
4bb-)	.	4g)	.
4r	4r	2r	4r
4aa	4dd	.	4f#
=83	=83	=83	=83
(4ccc	2dd	2r	(2g
2bb-)	.	.	.
.	2dd#z	4r	2fn)
4aa	.	4a	.
=84	=84	=84	=84
(4aa	(4dd#	(4cc	(2e
4gg#)	4ee)	4bn)	.
4r	4r	2fn	2d)
4gg#	4g#	.	.
=85	=85	=85	=85
(4bbn	(4bn	(2e	(2c
4aa)	4a)	.	.
4r	4r	2c)	2A)
4dd#	4d#	.	.
=86	=86	=86	=86
(4ff#	(4f#	2B	2G#
4ee)	4e)	.	.
4r	4r	(2f	(2d
4gg#	4g#	.	.
=87	=87	=87	=87
(4bb	(4b	2e)	2c)
4aa)	4a)	.	.
4r	4r	2c	2A
! dim.	! dim.	!	!
4dd#	4d#	.	.
=88	=88	=88	=88
(4ff#	(4f#	4r	4r
!	!	! dim.	! dim.
4ee)	4e)	4B	4G#
4r	4r	(4d	(4B
4dd#	4d#	4c)	4A)
=89	=89	=89	=89
(4ff#	(4f#	4r	4r
4ee)	4e)	4B	4G#
4r	4r	(4d	(4B
4dd#	4d#	4c)	4A)
=90	=90	=90	=90
(4ff#	(4f#	4r	4r
4ee)	4e)	4B	4G#
4r	4r	(4d	(4B
4dd#	4d#	4c)	4A)
=91	=91	=91	=91
(4ff#	(4f#	1r	1r
4ee)	4e)	.	.
4r	4r	.	.
4ee	4e	.	.
=92	=92	=92	=92
(2ggn	(2gn	1r	1r
4ff#	4f#	.	.
4ffn)	4fn)	.	.
=93	=93	=93	=93
(2aaz	[1fz [1d	[1Bz	[1GGnz
4gg	.	.	.
4ff)	.	.	.
=94	=94	=94	=94
2.ddd	1f 1d]	1B]	1GG]
(16ccc	.	.	.
16bb)	.	.	.
8r	.	.	.
=95	=95	=95	=95
! decresc.	!	!	!
(16aa	1r	1r	1r
16gg)	.	.	.
8r	.	.	.
(16ff	.	.	.
16ee)	.	.	.
8r	.	.	.
(16dd	.	.	.
16cc)	.	.	.
8r	.	.	.
(16b	.	.	.
16a)	.	.	.
8r	.	.	.
=96	=96	=96	=96
8g	1r	1r	1r
8f	.	.	.
8e	.	.	.
8d	.	.	.
4c	.	.	.
4B	.	.	.
=97	=97	=97	=97
4B-	1r	1r	1r
4A	.	.	.
4A-	.	.	.
4G	.	.	.
=98	=98	=98	=98
2c	1r	2E	4CC
.	.	.	4C
(8.e	.	4C	2r
16ck)	.	.	.
(8.f	.	4D	.
16dk)	.	.	.
=99	=99	=99	=99
(4..gz	1r	2E	4CC
.	.	.	4C
16e)	.	.	.
8c	.	4r	4r
8r	.	.	.
(16e	.	(16c	4G
16d	.	16B	.
16c	.	16A	.
16d)	.	16B)	.
=100	=100	=100	=100
! cresc.	!	! cresc.	!
8e	1r	8c	4C
8r	.	8r	.
8f	.	8d	4r
8r	.	8r	.
8g	.	8e	2r
8r	.	8r	.
8a	.	8f	.
8r	.	8r	.
=101	=101	=101	=101
(4b	1r	(4f (4d	(4G
8cc)	.	8e 8c)	8A)
8r	.	8r	8r
4r	.	2r	2r
(4g#	.	.	.
=102	=102	=102	=102
4..a)	1r	4r	(1FF
.	.	(4C#	.
(16e	.	.	.
8.f)	.	8.D)	.
(16c#k	.	(16Ek	.
8.d)	.	8.F)	.
16fk	.	16Fk	.
=103	=103	=103	=103
(2cn	1r	(2E	2.GG)
4B)	.	4D)	.
(16B	.	4Cn	4AA
16A	.	.	.
16G	.	.	.
16A)	.	.	.
=104	=104	=104	=104
4G	1r	4D	2BB
(4f	.	(4d	.
4e	.	4c	4r
4d)	.	4B)	4G
=105	=105	=105	=105
(4d#	2r	(4B	4C
8e)	.	8c)	8r
8r	.	16r	16r
.	.	(16c	(16AA
4r	4r	8.B)	8.GG)
.	.	(16Ak	(16FFk
4g	4G	8.G)	8.EE)
.	.	(16Fk	(16DDk
=106	=106	=106	=106
! (16GP/LL	!	!	!
! 16eP/JJ	!	!	!
2cc	2c	2E)	4CC)
.	.	.	4C
(8.ee	(8.e	(4c	2r
16cck)	16ck)	.	.
(8.ff	(8.f	4d)	.
16ddk)	16dk)	.	.
=107	=107	=107	=107
(4..gg	(4..g	2e	2r
16ee)	16e)	.	.
8cc	8c	4r	4r
8r	8r	.	.
(16ee	(16cc	(16e	4G
16dd	16b	16d	.
16cc	16a	16c	.
16dd)	16b)	16d)	.
=108	=108	=108	=108
8ee	8cc	8e	8c
8ee	8cc	8r	8r
8r	8r	8f	8d
8ff	8dd	8r	8r
8r	8r	8g	8e
8gg	8ee	8r	8r
8r	8r	8a	8f
8aa	8ff	8r	8r
=109	=109	=109	=109
(4bb	(4ff	(4dd	(4g
8ccc)	8ee)	8cc)	8a)
8r	8r	8r	8r
4r	2r	4r	2r
(4gg#	.	(4g#	.
=110	=110	=110	=110
4..aa)	4r	4..a)	(1F
.	(4c#	.	.
16ee	.	(16e	.
(8.ff	8.d)	8.f)	.
16cc#k)	(16ek	(16c#k	.
8.dd	8.f)	8.d)	.
16ffk	16fk	16fk	.
=111	=111	=111	=111
(2ccn	(2e	(2cn	2.G)
8b)	4d)	4B)	.
8r	.	.	.
(16b	4cn	(16B	4A
16a	.	16A	.
16g	.	16G	.
16a)	.	16A)	.
=112	=112	=112	=112
4g	4d	4G	4B
(4ff	(4dd	(4f	4r
4ee)	4cc	4e)	4r
(16cc	4f)	(16e	4G
16b	.	16d	.
16a	.	16c	.
16b)	.	16d)	.
=113	=113	=113	=113
4cc	(8e	(8c	8CC
.	8G)	8G	8r
4r	(8e	8c	8EE
.	8G)	8G)	8r
4r	(8e	(8c	8GG
.	8G)	8G	8r
(16ccK	(8e	8c	8C
8.ccc)	.	.	.
.	8G)	8G)	8r
=114	=114	=114	=114
(16bbK	(8f	(8d	4CC
8.gg)	.	.	.
.	8G)	8G	.
(16ffK	(8f	8d	4r
8.dd)	.	.	.
.	8G)	8G)	.
(16bK	(8f	(8d	2r
8.g)	.	.	.
.	8G)	8G	.
(16fK	(8f	8d	.
8.d)	.	.	.
.	8G)	8G)	.
=115	=115	=115	=115
4c	(8e	(8c	12CC
.	8G)	8G	12EE
.	.	.	12GG
4e	(8e	8c	12C
.	8G)	8G)	12E
.	.	.	12G
4r	(8e	(8c	4c
.	8G)	8G	.
(12cc	(8e	8c	4c
12ee	8G)	8G)	.
12ccc)	.	.	.
=116	=116	=116	=116
12bb	(8f	(8d	4CC
12aa	8G)	8G	.
12gg	.	.	.
12ff	(8f	8d	4r
12ee	8G)	8G)	.
12dd	.	.	.
12cc	(8f	(8d	2r
12b	8G)	8G	.
12a	.	.	.
12g	(8f	8d	.
12a	8G)	8G)	.
12f	.	.	.
=117	=117	=117	=117
(4e	4e	(4c	4C
4g	4r	4G	4r
4cc	4r	4c	4r
4ee)	(4g	4e)	(4C
=118	=118	=118	=118
(4f	4a)	(4F	4F)
4a	4r	4A	4r
4dd	4r	4d	4r
4ffz)	4ddz	4fz)	(4Dz
=119	=119	=119	=119
(2ee	(2cc	(2e	4G)
.	.	.	4GG
8dd)	8b)	4d)	4GG
16r	16r	.	.
16gg	16g	.	.
! (32aaP/LLL	! (32aP/LLL	!	!
! 32ggP/	! 32gP/	!	!
! 32ff#P/JJJ	! 32f#P/JJJ	!	!
4gg	4g	4r	4r
=120	=120	=120	=120
4ccc	4cc	(4E-	(4EE-
4ccc	4cc	4G	4GG
4ccc	4cc	4c	4C
4r	4r	4e-)	4E-)
=121	=121	=121	=121
4aa-	4a-	(4Fn	(4FFn
! dim.	! dim.	! dim.	! dim.
4aa-	4a-	4A-	4AA-
4aa-	4a-	4d-	4D-
4r	4r	4f)	4F)
=122	=122	=122	=122
4ee	4e	(4G	(4GG
4ee	4e	4B-	4BB-
4ee	4e	4d-	4D-
4r	4r	4en)	4En)
=123	=123	=123	=123
4ffn	4fn	(4A-	(4AA-
4ff	4f	4c)	4C)
4ee	4e	(4G	(4GG
4ee	4e	4c)	4C)
=124	=124	=124	=124
! cresc.	! cresc.	! cresc.	! cresc.
4ff	4f	(4A-	(4AA-
4ff	4f	4c)	4C)
4ff#	4f#	(4An	(4AAn
4ff#	4f#	4c)	4C)
=125	=125	=125	=125
4gg	4g	(4Bn	(4BBn
4gg	4g	4G)	4GG)
4aan	4an	4f	2r
(16ccc	(16cc	4d	.
16bb	16b	.	.
16aa	16a	.	.
16bb)	16b)	.	.
=126	=126	=126	=126
! molto cresc.	! molto cresc.	! molto cresc.	!
4ccc	4cc	4e	1r
(16eee	(16ee	4B	.
16ddd	16dd	.	.
16ccc	16cc	.	.
16ddd)	16dd)	.	.
4eee	4ee	4c	.
(16ggg	(16gg	4d	.
16fffn	16ffn	.	.
16eee	16ee	.	.
16fff)	16ff)	.	.
=127	=127	=127	=127
4ggg	4gg	4e	1r
4r	4r	4r	.
4aaa	4aa	4f	.
4r	4r	4r	.
=128	=128	=128	=128
4G	4e 4c	4e 4c	4GG
2r	4r	4r	4r
.	4r	4r	4r
(12a	4f 4d	4B	4GG
12g	.	.	.
12B)	.	.	.
=129	=129	=129	=129
4c	4e 4c	4c	4C
4d	4r	4r	4r
4e	4r	4r	4r
4f#	4c	4D#	4AA
=130	=130	=130	=130
(2f#	(2.c	(2D#	2.GG
4g)	.	4E)	.
(12a	4B)	4Fn	4GG
12g	.	.	.
12B)	.	.	.
=131	=131	=131	=131
4c	4c	4E	4C
4d	4r	4r	4r
4e	4r	4r	4r
4f#	4c	4D#	4AA
=132	=132	=132	=132
(2f#	(2.c	(2D#	2.GG
4g)	.	4E)	.
(12a	4B)	4Fn	4GG
12g	.	.	.
12B)	.	.	.
=133	=133	=133	=133
4c	4c	4E-	4AA-
4d	4r	4r	4r
4e-	4r	4r	4r
4g-	4c	4E-	4AA-
=134	=134	=134	=134
(1g-	(1c	(1E-	[1AA-
=135	=135	=135	=135
2.f)	1d-)	1F)	1AA-_
! cresc.	!	!	!
(12a-	.	.	.
12f)	.	.	.
12d-	.	.	.
=136	=136	=136	=136
!	! cresc.	! cresc.	! cresc.
(12c	(2e-	(2G-	1AA-_
12e-)	.	.	.
12g-	.	.	.
(12a-	.	.	.
12g-)	.	.	.
12e-	.	.	.
(12c	2d-)	2F)	.
12d-)	.	.	.
12f	.	.	.
(12a-	.	.	.
12f)	.	.	.
12d-	.	.	.
=137	=137	=137	=137
(12c	(2c	(2E-	1AA-]
12e-)	.	.	.
12g-	.	.	.
(12a-	.	.	.
12g-)	.	.	.
12e-	.	.	.
(12c	2d-)	2F)	.
12d-)	.	.	.
12f	.	.	.
(12a-	.	.	.
12f)	.	.	.
12d-	.	.	.
=138	=138	=138	=138
(12c	(2e-	(2G-	2AA-
12e-)	.	.	.
12g-	.	.	.
(12a-	.	.	.
12g-)	.	.	.
12e-	.	.	.
(12c	2d-)	2F)	2AA-
12d-)	.	.	.
12f	.	.	.
(12a-	.	.	.
12f)	.	.	.
12d-	.	.	.
=139	=139	=139	=139
4A-	4c	4E-	4AA-
4r	4r	4r	4r
4r	4r	2r	2r
4a-	(16g-	.	.
.	16f	.	.
.	16e-	.	.
.	16f)	.	.
=140	=140	=140	=140
4a-	4g-	2r	2r
4a-	4f	.	.
4a-	4e-	4r	4r
4a-	4d-	4d-	(16G-
.	.	.	16F
.	.	.	16E-
.	.	.	16F)
=141	=141	=141	=141
!	!	!	! cresc.
(4an	(4c	(4e-	4G-
4b-)	4d-)	4f)	4F
4r	4r	4r	4E-
4b-	4f	4f	4D-
=142	=142	=142	=142
(4cc	(4an	(4e-	(4C
8dd-)	8b-)	8f)	8BB-)
8r	8r	8r	8r
4r	4r	2r	2r
4b-	(16a-	.	.
.	16gn	.	.
.	16f	.	.
.	16g)	.	.
=143	=143	=143	=143
4b-	4a-	2r	2r
4b-	4g	.	.
4b-	4f	4r	4r
4b-	4e-	4e-	(16A-
.	.	.	16G
.	.	.	16F
.	.	.	16G)
=144	=144	=144	=144
!	!	!	! cresc.
(4bn	(4d	(4f	4A-
4cc)	4e-)	4g)	4G
4r	4r	4r	4F
4cc	4g	4g	4E-
=145	=145	=145	=145
(4ddn	(4bn	(4f	(4Dn
8ee-)	8cc)	8g)	8C)
8r	8r	8r	8r
4r	4r	2r	2r
4ee-	4cc	.	.
=146	=146	=146	=146
(4ee-	(4b-	4r	4r
4ee-	4a-	(8E-	(4C
.	.	8F)	.
4ee-	4g	4G	4C
4ee-)	4f#)	4A-	4C)
=147	=147	=147	=147
(2ee-	(2f#	(2A-	1BBn
4dd)	4g)	4G)	.
4gg	4r	4r	.
=148	=148	=148	=148
4ff	4r	4r	4r
(4ee-	(4a-	(8E-	(4C
.	.	8F)	.
4ee-	4g	4G	4C
4ee-)	4f#)	4A-	4C)
=149	=149	=149	=149
(2ee-	(2f#	(2A-	1BB
4dd)	4g)	4G)	.
4gg	4ffn	4dd	.
=150	=150	=150	=150
(2.gg	(2ff	(2dd	4r
.	.	.	(4B
.	4ee-)	4cc)	4c
4aan)	(8cc	(8ee-	4f#)
.	8ee-)	8cc)	.
=151	=151	=151	=151
4gg	(2ee-	(2cc	2.g
4G	.	.	.
4G	4dd)	4b)	.
4r	4r	4G	4r
=152	=152	=152	=152
1r	1r	2c	4r
.	.	.	4CC
.	.	(8.B	2GG
.	.	16Gk)	.
.	.	(8.c	.
.	.	16Ak)	.
=153	=153	=153	=153
2r	1r	2d	(8.FF
.	.	.	16DDk)
.	.	.	(8.GG
.	.	.	16EEk)
4r	.	(8.c	4AA
.	.	16Ak)	.
4g	.	(8.d	4BB
.	.	16Bk)	.
=154	=154	=154	=154
2cc	4r	4e	4C
.	4c	4f#	4AA
(8.b	2g	4g	4GG
16gk)	.	.	.
(8.cc	.	4r	4r
16ak)	.	.	.
=155	=155	=155	=155
2dd	(8.f	1r	2r
.	16dk)	.	.
.	(8.g	.	.
.	16ek)	.	.
(8.cc	4a	.	4r
16ak)	.	.	.
(8.dd	4b	.	4GG
16bk)	.	.	.
=156	=156	=156	=156
(8.ee	4cc	1r	2CC
16cck)	.	.	.
(8.ff	4r	.	.
16ddk)	.	.	.
4gg	4g	.	(8.EE
.	.	.	16CCk)
4gg	4a	.	(8.FF
.	.	.	16CCk)
=157	=157	=157	=157
! cresc.	! cresc.	!	! cresc.
[1gg	4b	1r	(8.GG
.	.	.	16CCk)
.	(16dd	.	(8.AA
.	16cc	.	.
.	16b	.	.
.	16cc)	.	16CCk)
.	4dd	.	(8.BB
.	.	.	16CCk)
.	(16ff	.	(8.C
.	16ee	.	.
.	16dd	.	.
.	16ee)	.	16CCk)
=158	=158	=158	=158
4gg]	1ff	4r	1D
4gg	.	(8.B	.
.	.	16Gk)	.
4gg	.	(8.B	.
.	.	16Gk)	.
4gg	.	(8.B	.
.	.	16Gk)	.
=159	=159	=159	=159
4gg	8ee	1c	1E
.	8r	.	.
(8.gg	8cc	.	.
.	8r	.	.
16eek)	.	.	.
(8.gg	8g	.	.
.	8r	.	.
16eek)	.	.	.
(8.gg	8e	.	.
.	8r	.	.
16eek)	.	.	.
=160	=160	=160	=160
[1gg	1f	4B	1D
.	.	(8.B	.
.	.	16Gk)	.
.	.	(8.B	.
.	.	16Gk)	.
.	.	(8.B	.
.	.	16Gk)	.
=161	=161	=161	=161
4gg]	(2.e	(2.B-z	(2.C
(8.gg	.	.	.
16cck)	.	.	.
(8.ccc	.	.	.
16cck)	.	.	.
(8.bb-	4g)	4c)	4E)
16cck)	.	.	.
=162	=162	=162	=162
8.aa	4a	4c	4F
16gg#k	.	.	.
8.aa	4r	4r	4r
16bbnk	.	.	.
8.ccc	2r	8r	2r
.	.	16r	.
16eek	.	16c#K	.
8.ff	.	8.d	.
16ggnk	.	16ek	.
=163	=163	=163	=163
8.aa	8r	4f	1r
.	16r	.	.
16cc#k	16eK	.	.
8.dd	8.f	4r	.
16eek	16c#k	.	.
8.ff	8.d	2r	.
16ggk	16ek	.	.
8.aa	8.f	.	.
16ffk	16dk	.	.
=164	=164	=164	=164
(12ee	1e	1cn	[1GG
12gg	.	.	.
12ccc)	.	.	.
12bb	.	.	.
12aa	.	.	.
12gg	.	.	.
12ff	.	.	.
12ee	.	.	.
12dd	.	.	.
12cc	.	.	.
12b	.	.	.
12a	.	.	.
=165	=165	=165	=165
4g	4f	4d 4Bn	4GG]
2r	4r	4r	4r
.	4r	4r	4r
(12aa	4f	4d	4GG
12gg	.	.	.
12b)	.	.	.
=166	=166	=166	=166
4cc	4e	4e	4C
4dd	4r	4r	4r
4ee	4r	4r	4r
4ff#	4cc	4d#	4A
=167	=167	=167	=167
(2ff#	(2.cc	(2d#	2.G
4gg)	.	4e)	.
(12aa	4b) 4d	4fn	4GG
12gg	.	.	.
12b)	.	.	.
=168	=168	=168	=168
4cc	4cc 4e	4e	4C
4dd	4r	4r	4r
4ee	4r	4r	4r
4ff#	4cc	4d#	4A
=169	=169	=169	=169
(2ff#	(2.cc	(2d#	2.G
4gg)	.	4e)	.
(12aa	4b) 4d	4fn	4GG
12gg	.	.	.
12b)	.	.	.
=170	=170	=170	=170
4cc	12c	4e	4C
.	12e	.	.
.	12G	.	.
4r	12c	4r	4r
.	12e	.	.
.	12G	.	.
4r	12c	4r	4r
.	12e	.	.
.	12G	.	.
(12a	4f	4dn	4GG
12g	.	.	.
12b)	.	.	.
=171	=171	=171	=171
4cc	4e	12c	4C
.	.	12e	.
.	.	12G	.
!	!	! cresc.	!
4r	4r	12c	4r
.	.	12e	.
.	.	12G	.
4r	4r	12c	4r
.	.	12e	.
.	.	12G	.
! cresc.	!	!	! cresc.
(12a	4B	4d	4GG
12g	.	.	.
12ff)	.	.	.
=172	=172	=172	=172
4ee	12c	4e	4C
.	12e	.	.
.	12G	.	.
4r	12c	4r	4r
.	12e	.	.
.	12G	.	.
4r	12c	4r	4r
.	12e	.	.
.	12G	.	.
(12aa	4f	4d	4GG
12gg	.	.	.
12bb)	.	.	.
=173	=173	=173	=173
4ccc	4e	12c	4C
.	.	12e	.
.	.	12G	.
4r	4r	12c	4r
.	.	12e	.
.	.	12G	.
4r	4r	12c	4r
.	.	12e	.
.	.	12G	.
4b 4d 4G	12B	4d	(16GG
.	.	.	16FF
.	12d	.	16EE
.	12f	.	16DD)
=174	=174	=174	=174
4cc 4e 4G	4e	4e	4CC
4r	4r	4r	4r
2r	2r	2r	2r
==|!	==|!	==|!	==|!
*-	*-	*-	*-
!!!RWG: Appoggiaturas of spine Violino I need manual editing in measures: 9, 22, 26, 106, 119
!!!RWG: Appoggiaturas of spine Violino II need manual editing in measures: 22, 119
!!!RWG: Key is interpreted using the Humdrum key tool.
!!!GTL: 6 Quartetti ("Tost III")
!!!AFT: stage2
!!!END: 1994/11/13
!!format changes:
!!content changes:
!!public access: complete
!!!KEY: 537739596
!!!EMD: Converted from MuseData to Humdrum Dec 16, 2000, by Andreas Kornstaedt using muse2kern.
